X:2403
T:Gullane Polka, The
O:england
R:polka
M:2/4
L:1/8
K:D
Ad BA|DF FE/D/|CE GE|BA F>G|Ad BA|DF FE/D/|CE GE|1 ED D2:|2 ED DE||
|:FE/F/ GF/G/|BA FD|AB/A/ GE|BA FD|FE/F/ GF/G/|BA FD|AB/A/ GE|1 ED DE:|2 ED D2||


